lib/flags/m/DM.svg

<svg xmlns="http://www.w3.org/2000/svg" fill="none" viewBox="0 0 20 15"><mask id="DM_svg__a" width="20" height="15" x="0" y="0" mask-type="alpha" maskUnits="userSpaceOnUse"><path fill="#fff" d="M0 0H20V15H0z"/></mask><g mask="url(#DM_svg__a)"><path fill="#279E19" fill-rule="evenodd" d="M0 0V15H20V0H0Z" clip-rule="evenodd"/><mask id="DM_svg__b" width="20" height="15" x="0" y="0" mask-type="alpha" maskUnits="userSpaceOnUse"><path fill="#fff" fill-rule="evenodd" d="M0 0V15H20V0H0Z" clip-rule="evenodd"/></mask><g fill-rule="evenodd" clip-rule="evenodd" mask="url(#DM_svg__b)"><path fill="#F7FCFF" d="M10 0H11.25V8.75H20V10H11.25V15H10V10H0V8.75H10V0Z"/><path fill="#272727" d="M8.75 0H10V7.5H20V8.75H10V15H8.75V8.75H0V7.5H8.75V0Z"/><path fill="#FECA00" d="M7.5 0H8.75V6.25H20V7.5H8.75V15H7.5V7.5H0V6.25H7.5V0Z"/><path fill="#C51918" d="M10 12.5C12.7614 12.5 15 10.2614 15 7.5C15 4.73858 12.7614 2.5 10 2.5C7.23858 2.5 5 4.73858 5 7.5C5 10.2614 7.23858 12.5 10 12.5Z"/><path fill="#804BFF" d="M9.20367 5.25809C9.20367 5.25809 9.44113 4.48751 9.99277 4.8856C10.8578 5.31167 11.1431 5.80115 11.4771 6.35547C11.8111 6.90979 10.6583 6.50382 10.4432 6.19183C10.2282 5.87985 9.03527 5.77869 9.20367 5.51839C9.37207 5.25809 9.20367 5.25809 9.20367 5.25809Z"/><path fill="#A95601" d="M9.00819 9.20337C9.00819 9.20337 8.42089 10.0068 9.00819 10.0068C9.5955 10.0068 11.9766 9.83395 11.6912 9.60509C11.4058 9.37622 9.29039 9.60509 9.29039 9.60509L9.00819 9.20337Z"/><path fill="#804BFF" d="M9.88626 9.17811C9.82535 9.10941 8.75525 6.68115 9.25279 6.17646C9.75033 5.67177 10.0419 5.96833 10.0419 6.72511C10.0419 7.48188 10.0718 9.3651 9.88626 9.17811Z"/><path fill="#279E19" d="M9.82327 8.7841C9.82327 8.7841 9.76152 9.37434 10.0651 10.0634C10.3686 10.7524 10.9817 10.7391 10.9817 10.1752C10.9817 9.61121 11.4292 10.1405 11.601 10.5169C11.7728 10.8933 11.3279 7.17455 10.6965 6.3426C10.0651 5.51065 9.45584 5.45723 9.63956 5.99485C9.82327 6.53247 9.82327 8.7841 9.82327 8.7841Z"/><path fill="#FECA00" d="M9.45454 4.75C9.45454 4.75 9.18744 4.92128 9.18744 5.39303 9.18744 5.86479 9.81984 5.24697 9.81984 5.24697L9.45454 4.75zM9.51142 4.57095 10.0625 4.28125 10.6135 4.57095 10.5083 3.95735 10.9541 3.5228 10.338 3.43327 10.0625 2.875 9.78694 3.43327 9.17085 3.5228 9.61666 3.95735 9.51142 4.57095zM9.51142 11.9459 10.0625 11.6562 10.6135 11.9459 10.5083 11.3323 10.9541 10.8978 10.338 10.8083 10.0625 10.25 9.78694 10.8083 9.17085 10.8978 9.61666 11.3323 9.51142 11.9459zM13.5625 8.15624 13.0114 8.44594 13.1166 7.83234 12.6708 7.39779 13.2869 7.30826 13.5625 6.74999 13.838 7.30826 14.4541 7.39779 14.0083 7.83234 14.1135 8.44594 13.5625 8.15624zM5.99171 7.83234 5.88647 8.44594 6.43751 8.15624 6.98856 8.44594 6.88332 7.83234 7.32913 7.39779 6.71304 7.30826 6.43751 6.74999 6.16199 7.30826 5.5459 7.39779 5.99171 7.83234zM7.79241 5.43874 7.61802 6.03638 7.24974 5.53443 6.62746 5.55325 6.99104 5.04788 6.78084 4.46188 7.37383 4.65149 7.8662 4.2705 7.86911 4.89305 8.3836 5.24359 7.79241 5.43874zM12.9231 10.9125 13.0975 10.3149 13.6887 10.1197 13.1742 9.7692 13.1713 9.14664 12.679 9.52764 12.086 9.33802 12.2962 9.92403 11.9326 10.4294 12.5549 10.4106 12.9231 10.9125zM13.0111 5.3659 12.8367 5.96354 12.4685 5.46159 11.8462 5.48041 12.2098 4.97504 11.9996 4.38904 12.5926 4.57865 13.0849 4.19766 13.0878 4.82021 13.6023 5.17075 13.0111 5.3659zM7.76343 11.0888 7.93782 10.4912 8.52901 10.296 8.01451 9.94547 8.0116 9.32291 7.51923 9.7039 6.92625 9.51429 7.13644 10.1003 6.77287 10.6057 7.39514 10.5868 7.76343 11.0888z"/></g></g></svg>

<svg xmlns="http://www.w3.org/2000/svg" fill="none" viewBox="0 0 20 15"><mask id="DM_svg__a" width="20" height="15" x="0" y="0" maskUnits="userSpaceOnUse"><path fill="#fff" d="M0 0h20v15H0z"/></mask><g mask="url(#DM_svg__a)"><path fill="#279E19" fill-rule="evenodd" d="M0 0v15h20V0H0z" clip-rule="evenodd"/><mask id="DM_svg__b" width="20" height="15" x="0" y="0" maskUnits="userSpaceOnUse"><path fill="#fff" fill-rule="evenodd" d="M0 0v15h20V0H0z" clip-rule="evenodd"/></mask><g fill-rule="evenodd" clip-rule="evenodd" mask="url(#DM_svg__b)"><path fill="#F7FCFF" d="M10 0h1.25v8.75H20V10h-8.75v5H10v-5H0V8.75h10V0z"/><path fill="#272727" d="M8.75 0H10v7.5h10v1.25H10V15H8.75V8.75H0V7.5h8.75V0z"/><path fill="#FECA00" d="M7.5 0h1.25v6.25H20V7.5H8.75V15H7.5V7.5H0V6.25h7.5V0z"/><path fill="#C51918" d="M10 12.5a5 5 0 100-10 5 5 0 000 10z"/><path fill="#804BFF" d="M9.204 5.258s.237-.77.789-.372c.865.426 1.15.915 1.484 1.47.334.554-.819.148-1.034-.164-.215-.312-1.408-.413-1.24-.674.17-.26 0-.26 0-.26z"/><path fill="#A95601" d="M9.008 9.203s-.587.804 0 .804 2.969-.173 2.683-.402c-.285-.229-2.4 0-2.4 0l-.283-.402z"/><path fill="#804BFF" d="M9.886 9.178c-.06-.069-1.13-2.497-.633-3.002.497-.504.789-.208.789.55 0 .756.03 2.64-.156 2.452z"/><path fill="#279E19" d="M9.823 8.784s-.061.59.242 1.28c.304.688.917.675.917.111 0-.564.447-.035.619.342.172.376-.273-3.343-.905-4.174-.63-.832-1.24-.886-1.056-.348.183.537.183 2.789.183 2.789z"/><path fill="#FECA00" d="M9.455 4.75s-.268.171-.268.643.633-.146.633-.146l-.365-.497zm.056-.18l.552-.289.55.29-.105-.614.446-.434-.616-.09-.275-.558-.276.558-.616.09.446.434-.106.614zm0 7.376l.552-.29.55.29-.105-.614.446-.434-.616-.09-.275-.558-.276.558-.616.09.446.434-.106.614zm4.052-3.79l-.552.29.106-.614-.446-.434.616-.09.275-.558.276.558.616.09-.446.434.106.614-.552-.29zm-7.571-.324l-.106.614.552-.29.55.29-.105-.614.446-.434-.616-.09-.275-.558-.276.558-.616.09.446.434zm1.8-2.393l-.174.597-.368-.502-.623.02.364-.506-.21-.586.593.19.492-.381.003.622.515.35-.592.196zm5.131 5.473l.175-.597.59-.195-.514-.35-.003-.623-.492.38-.593-.189.21.586-.363.505.622-.018.368.502zm.088-5.546l-.174.598-.368-.502-.623.018.364-.505-.21-.586.593.19.492-.381.003.622.514.35-.59.196zm-5.248 5.723l.175-.598.591-.195-.514-.35-.003-.623-.493.38-.593-.189.21.586-.363.506.622-.02.368.503z"/></g></g></svg>
